!!!COM: Music21
!!!OTL: A Barquiña
!!!OMV: pezas_jotas_a-barquina_a-barquina-partitura.musicxml
**kern
*part1
*staff1
*I"Bagpipes
*I'Bag
*clefG^2
*k[]
*M3/4
=1
!LO:TX:a:t=Prestissimo
*MM220
!LO:TX:a:t=[quarter]=220
4r
8ccL
8ddJ
8eeL
8ffJ
=||
8ggL
8aaJ
8ggL
8ffJ
8eeL
8ddJ
=
4cc
8ccL
8ddJ
8eeL
8ffJ
=
8ggL
8aaJ
8ggL
8ffJ
8eeL
8ddJ
=
4dd
8ddL
8eeJ
8ffL
8ggJ
=
8aaL
8bbJ
8aaL
8ggJ
8ffL
8aaJ
=
8ggL
8aaJ
8ggL
8ffJ
8eeL
8ggJ
!!linebreak:original
=
8ffL
8ggJ
8ffL
8eeJ
8ddL
8ffJ
=
4ee
8ccL
8ddJ
8eeL
8ffJ
=||
8ggL
8aaJ
8ggL
8ffJ
8eeL
8ddJ
=
4cc
8ccL
8ddJ
8eeL
8ffJ
=
8ggL
8aaJ
8ggL
8ffJ
8eeL
8ddJ
=
4dd
8ddL
8eeJ
8ffL
8ggJ
=
8aaL
8bbJ
8aaL
8ggJ
8ffL
8aaJ
!!linebreak:original
=
8ggL
8aaJ
8ggL
8ffJ
8eeL
8ggJ
!!linebreak:original
=
8ffL
8ggJ
8ffL
8eeJ
8ddL
8ffJ
=
4ee
4ee
4ee
=
2.ee
=||
4dd
4ee
4ff
=
4gg
4aa
4bb
=
8ggL
8aaJ
8ggL
8ffJ
[4ee
=
2.ee]
=
4ee
4ff
4gg
=
4aa
4bb
4ccc
=
8aaL
8bbJ
8aaL
8ggJ
[4ff
!!linebreak:original
=
2.ff]
=
4dd
4ee
4ff
=
4gg
4aa
4bb
=
8ggL
8aaJ
8ggL
8ffJ
[4ee
=
2.ee]
=
4gg
4aa
4gg
=
4ff
4ee
4gg
=
8ffL
8ggJ
8ffL
8eeJ
[4dd
=
2.dd]
=
4aa
4bb
4aa
=
4gg
4ff
4aa
!!linebreak:original
=
8ggL
8aaJ
8ggL
8ffJ
[4ee
=
2.ee]
!!pagebreak:original
=
4gg
4aa
4gg
=
4ff
4ee
4gg
=
8ffL
8eeJ
8ffL
8ggJ
[4aa
=
4aa]
8ffL
8ggJ
8aaL
8bbJ
=
4gg
8eeL
8ffJ
8ggL
8aaJ
=
4ff
8ddL
8eeJ
8ffL
8ggJ
=
4ee
4ee
4ee
=||
4ee
8ccL
8ddJ
8eeL
8ffJ
=||
8ee
8r
2r
==
*-
!!!system-decoration: s1,s2
